X:1
T:Title
%%score { ( 1 3 ) | 2 }
L:1/8
M:4/4
K:A
V:1 treble nm="Grand Piano"
V:3 treble 
V:2 bass 
V:1
 z4 z2 z[Q:1/4=100] [A,CE] | [CEA]3 [EG] [DF][CE][A,C][CE] | E3- [EB] c3 [^EB] | %3
 [FA]3 [FA] [FB][FA][EG][DF] |[M:3/4] [CE]6 |[M:1/4] E2 |[M:4/4] B3 c BAAB | c2 c4 [Ec]2 | %8
 [EB]3 [Ec] [EB][^DA][DF][DB] |[M:3/4] [EB]6 |[M:1/4] [CEA]2 |[M:4/4] [CEA]3 [DF] [CE]3 A | %12
 c3 B A4 | [FA]2 [FA][FA] [Fd]2 [DF][DF] |[M:7/8] [EA]3 [EB] [Ec]3 |[M:1/8] [Ec] | %16
[M:4/4] [^Ec]3 [EA] [EG]3 [EB] | [FA]3 [EG] F4 |[M:9/8] E2 A c e2- ecA | %19
[M:17/16] [EAc]/-[EAc]/-[EAc]-<[EAc][DGB][CA]/-[CA]/-[CA]/-[CA]/-[CA]/-[CA]-<[CA] |] %20
V:2
 z4 z2 z A,, | A,,3 [A,,A,] [A,,A,][A,,A,][A,,E,][A,,A,] | [C,A,]3 [E,G,] [A,E]3 [C,A,] | %3
 [D,A,]3 [D,D] [D,D][D,D][D,A,][D,A,] |[M:3/4] [A,,A,]6 |[M:1/4] [A,C]2 | %6
[M:4/4] [E,G,E]3 [E,A,E] [E,G,D][F,A,C][F,A,C][E,G,E] | [A,E]2 [A,E]4 [A,,A,]2 | %8
 [B,,G,]3 [B,,A,] [B,,G,][B,,F,][B,,A,][B,,F,] |[M:3/4] [E,G,]6 |[M:1/4] A,,2 | %11
[M:4/4] A,,3 [A,,A,] [A,,A,]3[K:treble] [A,CE] | [A,EA]3[K:bass] [A,DE] [A,CE]4 | %13
 [D,D]2 [D,D][D,D] [D,A,]2 [D,A,][D,A,] |[M:7/8] [C,A,]3 [B,,G,] [A,,A,]3 |[M:1/8] [A,,A,] | %16
[M:4/4] [C,G,]3 [C,A,] [G,B,]3 [C,G,] | [D,F,]3 [D,A,] [D,A,D]4 | %18
[M:9/8] [E,,E,]2 [A,,A,] [C,C] [E,E]2- [E,E][A,E][F,CF] | %19
[M:17/16] E,/-E,/-E,-<E,E,A,,/-A,,/-A,,/-A,,/-A,,/-A,,-<A,, |] %20
V:3
 x8 | x8 | A4 z4 | x8 |[M:3/4] x6 |[M:1/4] x2 |[M:4/4] x8 | x8 | x8 |[M:3/4] x6 |[M:1/4] x2 | %11
[M:4/4] x8 | x8 | x8 |[M:7/8] x7 |[M:1/8] x |[M:4/4] x8 | x8 |[M:9/8] x9 |[M:17/16] x17/2 |] %20

